symbols/web/reset_tv/materialsymbolssharp/reset_tv_grad200fill1_20px.svg

<svg xmlns="http://www.w3.org/2000/svg" height="20" width="20"><path d="M6.021 18.188v-1.646H1V1.854h18v6.188h-7.562l1.25-1.25-1.605-1.604-4 4 4 4 1.605-1.605-1.209-1.25H19V16.5h-5.021v1.688Z"/></svg>

<svg xmlns="http://www.w3.org/2000/svg" height="20" width="20"><path d="M6.021 18.188V16.542H1V1.854H19V8.042H11.438L12.688 6.792L11.083 5.188L7.083 9.188L11.083 13.188L12.688 11.583L11.479 10.333H19V16.5H13.979V18.188Z"/></svg>
